public/assets/images/shield.svg

<svg width="48" height="49" viewBox="0 0 48 49" fill="none" xmlns="http://www.w3.org/2000/svg">
    <path d="M22.9837 45.9999C21.9798 46.0011 21.0076 45.6386 20.2383 44.9763L6.51975 33.1459C5.5542 32.3135 4.99763 31.0844 5.00001 29.7898V4.57684C4.99807 3.76671 5.50189 3.04647 6.25013 2.78969C17.123 -0.929898 28.877 -0.929898 39.7499 2.78969C40.4965 3.04867 40.9994 3.76755 41 4.57684V29.7898C41.0026 31.0863 40.4425 32.3166 39.4721 33.1459L25.7535 44.9763C24.9778 45.6442 23.996 46.0071 22.9837 45.9999Z" fill="white" />
    <path d="M25.933 26.938L20 23L25.841 32L32 23.243L25.933 26.938Z" fill="#52D2BC" stroke="#6535FF" stroke-width="0.16" stroke-linecap="round" stroke-linejoin="round" />
    <path d="M20.008 23.366L20.042 23.375L25.987 27L31.958 23.603H31.992L31.966 23.586L32 23.577L26.241 13L20 23.349L20.025 23.366H20.008Z" fill="#52D2BC" stroke="#6535FF" stroke-width="0.16" stroke-linecap="round" stroke-linejoin="round" />
    <path d="M41.6618 4.72979C30.8493 1.09007 19.1589 1.09007 8.3464 4.72979C6.94041 5.20362 5.99433 6.53473 6.00003 8.03105V31.9652C6.00387 33.6844 6.7575 35.3147 8.06027 36.4219L21.2883 47.638C23.4358 49.454 26.5642 49.454 28.7117 47.638L41.9398 36.4219C43.2425 35.3147 43.9962 33.6844 44 31.9652V8.01455C43.9998 6.52648 43.0588 5.20455 41.6618 4.72979ZM42.3404 31.9075C42.3423 33.1348 41.803 34.2994 40.8688 35.0849L27.6489 46.2927C26.1219 47.6042 23.8781 47.6042 22.3511 46.2927L9.13125 35.0849C8.19703 34.2994 7.65769 33.1348 7.65966 31.9075V8.01455C7.67706 7.26154 8.1614 6.60083 8.86965 6.36391C19.3386 2.83159 30.6614 2.83159 41.1304 6.36391C41.8401 6.59873 42.3254 7.2607 42.3404 8.01455V31.9075Z" fill="#6535FF" />
    <path opacity="0.44" d="M45 32.109V7.99681C45.007 6.48896 44.0493 5.14631 42.6236 4.66525C38.1202 3.16191 33.4372 2.26563 28.698 2C30.2087 4.1595 31.2556 6.60996 31.7723 9.19617C32.3635 12.3217 32.6777 15.4935 32.7112 18.6745C32.8477 20.3843 32.7751 22.1045 32.4952 23.7967C31.6643 27.8696 28.565 31.0929 27.0778 34.9658C25.9524 38.1732 25.7029 41.6239 26.3549 44.9605C26.5988 46.3282 26.9347 47.6777 27.3603 49C28.1317 48.7767 28.8478 48.3936 29.4624 47.8756L42.9061 36.5566C44.2169 35.4505 44.9815 33.8265 45 32.109Z" fill="#BBC4EF" />
    <path opacity="0.18" d="M12.4371 29L3.27997 26.4097C2.93822 26.4074 2.61137 26.2659 2.37134 26.0164C2.1313 25.7669 1.99774 25.4298 2.00003 25.0793V20.3128C2.0023 19.9623 2.14022 19.6271 2.38348 19.3809C2.62674 19.1347 2.95541 18.9977 3.29715 19L12.4457 21.5903C12.6662 21.5885 12.8663 21.7219 12.9543 21.9292C13.0423 22.1365 13.001 22.3777 12.8494 22.5419L9.55939 23.6168C9.36689 23.8375 9.36689 24.1713 9.55939 24.3921L12.8322 28.0485C12.9749 28.214 13.0121 28.4489 12.9277 28.6522C12.8433 28.8555 12.6523 28.9908 12.4371 29ZM37.5954 21.5377L46.724 19C47.0647 19.0023 47.3905 19.1448 47.6298 19.3961C47.8691 19.6474 48.0022 19.9868 48 20.3398V25.1402C48 25.4939 47.8632 25.8329 47.6202 26.0814C47.3772 26.3298 47.0482 26.467 46.7069 26.4623L37.544 29C37.3258 28.9983 37.1294 28.8627 37.0439 28.6547C36.9583 28.4466 37.0001 28.2059 37.1501 28.0417L40.4299 24.386C40.6218 24.1637 40.6218 23.8274 40.4299 23.6051L37.1672 22.496C37.0211 22.3245 36.9867 22.0797 37.0794 21.872C37.1722 21.6644 37.3746 21.5333 37.5954 21.5377Z" fill="#070707" />
    <path d="M12.4371 27H3.27997C2.93822 26.9977 2.61137 26.8557 2.37134 26.6053C2.1313 26.3549 1.99774 26.0166 2.00003 25.6649V18.3174C2.0023 17.9657 2.14022 17.6293 2.38348 17.3822C2.62674 17.1352 2.95541 16.9977 3.29715 17H12.4457C12.6662 16.9982 12.8663 17.132 12.9543 17.3401C13.0423 17.5481 13.001 17.7902 12.8494 17.9549L9.55939 21.6066C9.36809 21.8252 9.36809 22.1572 9.55939 22.3758L12.8322 26.0451C12.9749 26.2112 13.0121 26.447 12.9277 26.651C12.8433 26.855 12.6523 26.9908 12.4371 27ZM37.5954 17H46.724C47.0647 17.0023 47.3905 17.1443 47.6298 17.3947C47.8691 17.6451 48.0022 17.9833 48 18.3351V25.6825C48 26.035 47.8632 26.3728 47.6202 26.6203C47.3772 26.8679 47.0482 27.0046 46.7069 26.9999L37.544 26.9822C37.3258 26.9805 37.1294 26.8454 37.0439 26.6381C36.9583 26.4308 37.0001 26.1909 37.1501 26.0273L40.4299 22.3846C40.6218 22.163 40.6218 21.828 40.4299 21.6065L37.1672 17.9372C37.0322 17.7657 37.0044 17.5294 37.0957 17.3295C37.187 17.1296 37.3813 17.0015 37.5954 17Z" fill="#FCCDD3" />
    <path d="M46 28H36.5624C36.3368 27.9983 36.1337 27.8637 36.0453 27.6573C35.9569 27.4508 36.0001 27.2119 36.1552 27.0489L39.546 23.4031C39.7443 23.1825 39.7443 22.8488 39.546 22.6282L36.1817 19M8.54968 22.723L11.8602 26.1202C12.0048 26.2754 12.0406 26.4963 11.9518 26.6856C11.863 26.8748 11.666 26.9976 11.4474 27H2.28122C1.93914 26.9978 1.61198 26.867 1.3717 26.6363C1.13143 26.4056 0.997743 26.094 1.00003 25.7699L1 19L8.54968 22.723Z" stroke="#6535FF" stroke-width="0.87" stroke-linecap="round" stroke-linejoin="round" />
    <path d="M10 34L22 44" stroke="#BBC4EF" stroke-width="0.87" stroke-linecap="round" stroke-linejoin="round" />
</svg>

<svg xmlns="http://www.w3.org/2000/svg" width="48" height="49" fill="none"><path fill="#fff" d="M22.984 46a4.199 4.199 0 0 1-2.746-1.024L6.52 33.146A4.42 4.42 0 0 1 5 29.79V4.577A1.876 1.876 0 0 1 6.25 2.79a51.68 51.68 0 0 1 33.5 0c.746.259 1.25.978 1.25 1.787V29.79a4.403 4.403 0 0 1-1.528 3.356l-13.719 11.83A4.198 4.198 0 0 1 22.983 46Z"/><path fill="#52D2BC" stroke="#6535FF" stroke-linecap="round" stroke-linejoin="round" stroke-width=".16" d="M25.933 26.938 20 23l5.841 9L32 23.243l-6.067 3.695Z"/><path fill="#52D2BC" stroke="#6535FF" stroke-linecap="round" stroke-linejoin="round" stroke-width=".16" d="m20.008 23.366.034.009L25.987 27l5.971-3.397h.034l-.026-.017.034-.009L26.241 13 20 23.349l.025.017h-.017Z"/><path fill="#6535FF" d="M41.662 4.73a52.19 52.19 0 0 0-33.316 0A3.464 3.464 0 0 0 6 8.03v23.934a5.866 5.866 0 0 0 2.06 4.457l13.228 11.216a5.739 5.739 0 0 0 7.424 0L41.94 36.422A5.866 5.866 0 0 0 44 31.965V8.015c0-1.489-.941-2.81-2.338-3.285Zm.678 27.177a4.143 4.143 0 0 1-1.471 3.178l-13.22 11.208a4.059 4.059 0 0 1-5.298 0L9.131 35.085a4.142 4.142 0 0 1-1.471-3.178V8.015a1.78 1.78 0 0 1 1.21-1.651 50.431 50.431 0 0 1 32.26 0c.71.235 1.195.897 1.21 1.65v23.893Z"/><path fill="#BBC4EF" d="M45 32.109V7.997a3.497 3.497 0 0 0-2.376-3.332A53.419 53.419 0 0 0 28.698 2a19.073 19.073 0 0 1 3.074 7.196c.592 3.126.906 6.297.94 9.478a21.1 21.1 0 0 1-.217 5.123c-.83 4.073-3.93 7.296-5.417 11.169a19.117 19.117 0 0 0-.723 9.995c.244 1.367.58 2.717 1.005 4.039a5.737 5.737 0 0 0 2.102-1.124l13.444-11.32A5.903 5.903 0 0 0 45 32.11Z" opacity=".44"/><path fill="#070707" d="M12.437 29 3.28 26.41a1.273 1.273 0 0 1-.909-.394A1.34 1.34 0 0 1 2 25.08v-4.766c.002-.35.14-.686.383-.932.244-.246.572-.383.914-.381l9.149 2.59a.55.55 0 0 1 .508.34.575.575 0 0 1-.105.612l-3.29 1.075a.593.593 0 0 0 0 .775l3.273 3.657c.143.165.18.4.096.603a.559.559 0 0 1-.49.348Zm25.158-7.462L46.724 19c.34.002.667.145.906.396.24.251.372.59.37.944v4.8c0 .354-.137.693-.38.941a1.253 1.253 0 0 1-.913.381L37.544 29a.548.548 0 0 1-.5-.345.583.583 0 0 1 .106-.613l3.28-3.656a.602.602 0 0 0 0-.78l-3.263-1.11a.593.593 0 0 1-.088-.624.555.555 0 0 1 .516-.334Z" opacity=".18"/><path fill="#FCCDD3" d="M12.437 27H3.28a1.27 1.27 0 0 1-.909-.395 1.347 1.347 0 0 1-.371-.94v-7.348c.002-.351.14-.688.383-.935A1.27 1.27 0 0 1 3.297 17h9.149a.55.55 0 0 1 .508.34.578.578 0 0 1-.105.615l-3.29 3.652a.587.587 0 0 0 0 .769l3.273 3.67c.143.165.18.401.096.605a.56.56 0 0 1-.49.349Zm25.158-10h9.129c.34.002.667.144.906.395.24.25.372.588.37.94v7.348c0 .352-.137.69-.38.937a1.255 1.255 0 0 1-.913.38l-9.163-.018a.548.548 0 0 1-.5-.344.58.58 0 0 1 .106-.61l3.28-3.643a.598.598 0 0 0 0-.779l-3.263-3.669a.59.59 0 0 1-.071-.608.556.556 0 0 1 .5-.329Z"/><path stroke="#6535FF" stroke-linecap="round" stroke-linejoin="round" stroke-width=".87" d="M46 28h-9.438a.561.561 0 0 1-.407-.951l3.391-3.646a.579.579 0 0 0 0-.775L36.182 19M8.55 22.723l3.31 3.397c.145.155.18.376.092.566a.56.56 0 0 1-.505.314H2.281a1.326 1.326 0 0 1-.91-.364A1.19 1.19 0 0 1 1 25.77V19l7.55 3.723Z"/><path stroke="#BBC4EF" stroke-linecap="round" stroke-linejoin="round" stroke-width=".87" d="m10 34 12 10"/></svg>
